public/icon/24/timer.svg

<svg width="24" height="24" viewBox="0 0 24 24" fill="none" xmlns="http://www.w3.org/2000/svg">
<path d="M12 20C16.4183 20 20 16.4183 20 12C20 7.58172 16.4183 4 12 4C7.58172 4 4 7.58172 4 12C4 16.4183 7.58172 20 12 20Z" fill="white" stroke="#092E24" stroke-width="2" stroke-miterlimit="10" stroke-linecap="round" stroke-linejoin="round"/>
<path d="M12 9V12L15 15" stroke="#092E24" stroke-width="2" stroke-miterlimit="10" stroke-linecap="round" stroke-linejoin="round"/>
<path fill-rule="evenodd" clip-rule="evenodd" d="M8.19876 4.95903C6.40653 5.92865 5.02636 7.5626 4.38833 9.53077C3.55357 8.99806 3 8.06368 3 7C3 5.34315 4.34315 4 6 4C6.86856 4 7.65092 4.36911 8.19876 4.95903Z" fill="#092E24"/>
<path d="M8.19876 4.95903L8.6746 5.83857C8.9466 5.69141 9.13521 5.42668 9.18547 5.12154C9.23572 4.81639 9.14196 4.50516 8.93152 4.27855L8.19876 4.95903ZM4.38833 9.53077L3.85038 10.3737C4.11138 10.5403 4.4348 10.5766 4.72621 10.472C5.01761 10.3674 5.24412 10.1337 5.3396 9.83914L4.38833 9.53077ZM7.72292 4.0795C5.70775 5.16974 4.15537 7.00659 3.43707 9.2224L5.3396 9.83914C5.89735 8.1186 7.10531 6.68757 8.6746 5.83857L7.72292 4.0795ZM4.92629 8.68779C4.3672 8.33101 4 7.70805 4 7H2C2 8.4193 2.73995 9.66511 3.85038 10.3737L4.92629 8.68779ZM4 7C4 5.89543 4.89543 5 6 5V3C3.79086 3 2 4.79086 2 7H4ZM6 5C6.57907 5 7.09944 5.24481 7.466 5.63952L8.93152 4.27855C8.2024 3.49342 7.15806 3 6 3V5Z" fill="#092E24"/>
<path fill-rule="evenodd" clip-rule="evenodd" d="M15.8012 4.95903C17.5935 5.92865 18.9736 7.5626 19.6117 9.53077C20.4464 8.99806 21 8.06368 21 7C21 5.34315 19.6569 4 18 4C17.1314 4 16.3491 4.36911 15.8012 4.95903Z" fill="#092E24"/>
<path d="M15.8012 4.95903L15.3254 5.83857C15.0534 5.69141 14.8648 5.42668 14.8145 5.12154C14.7643 4.81639 14.858 4.50516 15.0685 4.27855L15.8012 4.95903ZM19.6117 9.53077L20.1496 10.3737C19.8886 10.5403 19.5652 10.5766 19.2738 10.472C18.9824 10.3674 18.7559 10.1337 18.6604 9.83914L19.6117 9.53077ZM16.2771 4.0795C18.2923 5.16974 19.8446 7.00659 20.5629 9.2224L18.6604 9.83914C18.1027 8.1186 16.8947 6.68757 15.3254 5.83857L16.2771 4.0795ZM19.0737 8.68779C19.6328 8.33101 20 7.70805 20 7H22C22 8.4193 21.2601 9.66511 20.1496 10.3737L19.0737 8.68779ZM20 7C20 5.89543 19.1046 5 18 5V3C20.2091 3 22 4.79086 22 7H20ZM18 5C17.4209 5 16.9006 5.24481 16.534 5.63952L15.0685 4.27855C15.7976 3.49342 16.8419 3 18 3V5Z" fill="#092E24"/>
<path d="M6 17.5L5 21" stroke="#092E24" stroke-width="2" stroke-miterlimit="10" stroke-linecap="round" stroke-linejoin="round"/>
<path d="M18 17.5L19 21" stroke="#092E24" stroke-width="2" stroke-miterlimit="10" stroke-linecap="round" stroke-linejoin="round"/>
</svg>

<svg width="24" height="24" viewBox="0 0 24 24">
  <g class="timer">
    <path d="M12 20a8 8 0 1 0 0-16 8 8 0 0 0 0 16Z" class="fill-white stroke-current stroke-2 sl-r"/>
    <path d="M12 9v3l3 3" class="stroke-current stroke-2 sl-r"/>
    <g class="fill-currentcolor stroke-current stroke-2 sl-r">
      <path fill-rule="evenodd" d="M8.199 4.959a8.023 8.023 0 0 0-3.81 4.572 3 3 0 1 1 3.81-4.572Z" clip-rule="evenodd"/>
      <path d="m8.199 4.959.476.88a1 1 0 0 0 .257-1.56l-.733.68Zm-3.81 4.572-.539.843a1 1 0 0 0 1.49-.535l-.952-.308Zm3.334-5.452a9.023 9.023 0 0 0-4.286 5.143l1.903.617a7.023 7.023 0 0 1 3.335-4l-.952-1.76Zm-2.797 4.61A1.998 1.998 0 0 1 4 7H2c0 1.42.74 2.665 1.85 3.374l1.076-1.686ZM4 7a2 2 0 0 1 2-2V3a4 4 0 0 0-4 4h2Zm2-2c.58 0 1.1.245 1.466.64l1.466-1.361A3.992 3.992 0 0 0 6 3v2Z"/>
    </g>
    <g class="fill-currentcolor stroke-current stroke-2 sl-r">
      <path fill-rule="evenodd" d="M15.801 4.959a8.023 8.023 0 0 1 3.81 4.572 3 3 0 1 0-3.81-4.572Z" clip-rule="evenodd"/>
      <path d="m15.801 4.959-.476.88a1 1 0 0 1-.256-1.56l.732.68Zm3.81 4.572.539.843a1 1 0 0 1-1.49-.535l.952-.308Zm-3.334-5.452a9.023 9.023 0 0 1 4.286 5.143l-1.903.617a7.023 7.023 0 0 0-3.335-4l.952-1.76Zm2.797 4.609A2 2 0 0 0 20 7h2c0 1.42-.74 2.665-1.85 3.374l-1.076-1.686ZM20 7a2 2 0 0 0-2-2V3a4 4 0 0 1 4 4h-2Zm-2-2c-.58 0-1.1.245-1.466.64l-1.465-1.361A3.992 3.992 0 0 1 18 3v2Z"/>
    </g>
    <path d="M6 17.5 5 21" class="stroke-current stroke-2 sl-r"/>
    <path d="m18 17.5 1 3.5" class="stroke-current stroke-2 sl-r"/>
  </g>
</svg>
